!! 00000] TT[WS
!!!OTL: Pao Shanyao
!!!ARE: Asia, China,ÿShanxi Linxian
!! Ethnic Group: Han
!! WI, 158 (2)
!!!SCT: J0193
!!!YEM: Copyright 1995, estate of Helmut Schaffrath.
**kern
*ICvox
*Ivox
*M4/4
*k[f#]
*G:
{4e
8dd
8ee
8dd
8cc
8b
8a
=1
4e
8dd
8ee
8dd
8cc
8b
8a}
=2
{4.g
8e
8b
8ee
8dd
8cc
=3
8b
16a
16b
8a
8e
2g}
=4
{8.f#
16f#
8e
8d
8b
4b
8dd
=5
8.a
16b
8f#
8e
2d}
=6
{2f#
8.e
16f#
8d
8e
=7
8b
4a
8d
4g
8f#
8e
=8
1d}
==
!!!AGN: Xiaodiao. Qingge, Aisu
!!!ONB: ESAC (Essen Associative Code) Database: CHINA
!!!AMT: simple quadruple
!!!AIN: vox
!!!EED: Helmut Schaffrath
!!!EEV: 1.0
*-
